X:330
T:B330-  The Norwich Loyal Litany
Q:1/4=120
L:1/4
M:C|
K:G
D|(G/A/)BdB|AFA(G/F/)|GeBe|d3g|\
d(c/d/) (e/d/) (c/B/)|AFC3/2G/|F(G/A/)B(A/G/)|G3|]

